X:132
T:Bird Catchers THO4.132, The
M:2/4
L:1/8
Z:vmp. Peter Dunk 2010/11.from a transcription by Fynn Titford-Mock 2007
B:Thompson's Compleat Collection of 200 Favourite Country Dances Volume IV.
Q:1/4=140
K:C
c2 c/B/c/d/|c2G2|egfd|egfd|c2 c/B/c/d/|c2G2|egfd|e2d2:|
|:g2g2|g2 fe|defd|cBAG|g2g2|g2 fe|dfdB|c2C2:|
